build/assets/img/svg/icon-linkedin.svg

<svg width="60" height="60" viewBox="0 0 60 60" fill="none" xmlns="http://www.w3.org/2000/svg">
<rect width="60" height="60" rx="10" fill="#A62E41"/>
<path d="M11.6153 23.6178H19.4964V49H11.6153V23.6178ZM15.5705 11C18.0901 11 20.141 13.0541 20.141 15.5776C20.141 18.1012 18.0901 20.1552 15.5705 20.1552C13.0362 20.1552 11 18.1012 11 15.5776C11 13.0541 13.0362 11 15.5705 11Z" fill="white"/>
<path d="M24.4473 23.6177H31.9915V27.0949H32.094C33.1488 25.0995 35.7123 23.0015 39.5504 23.0015C47.5194 23.0015 48.999 28.254 48.999 35.091V48.9999H41.1325V36.6609C41.1325 33.7119 41.0885 29.9266 37.0454 29.9266C32.9437 29.9266 32.3284 33.1397 32.3284 36.4408V48.9999H24.4619L24.4473 23.6177Z" fill="white"/>
</svg>

<svg width="60" height="60" fill="none" xmlns="http://www.w3.org/2000/svg"><rect width="60" height="60" rx="10" fill="#A62E41"/><path d="M11.615 23.618h7.881V49h-7.88V23.618zM15.57 11a4.58 4.58 0 014.571 4.578 4.58 4.58 0 01-4.57 4.577A4.57 4.57 0 0111 15.578 4.57 4.57 0 0115.57 11zm8.877 12.618h7.544v3.477h.103c1.055-1.995 3.618-4.093 7.456-4.093 7.97 0 9.449 5.252 9.449 12.089V49h-7.867V36.66c0-2.948-.043-6.733-4.087-6.733-4.101 0-4.717 3.213-4.717 6.514V49h-7.866l-.015-25.382z" fill="#fff"/></svg>
